X: 3158
T: Beauty Spot, The
R: reel
M: 4/4
K: Dmixolydian
A2GB A2AB|cBcG EFGB|A2GB AddB|cBcG EDD2|
A2GB A2AB|cBcG EFGB|A2Ad B2Bd|cBcG EDD2||
edd2 edcd|edcd eaag|edd2 edcB|ABcd edd2|
edd2 edcd|edcd eaag|afge f2ed|ABcd eddB||

